X:2607
L:1/8
M:6/8
K:D
 AFD FED | AFD FED | G2 B AGF | EFE EFG | FAD FED | FAD FED | G2 B AFD | DED D2 G :: d2 e fdB | 
 BcB BAF | ABA ABd | e3 edB | d2 e fdB | BcB BAF | AdB AFD | DED D3 :|

